icons/smiley-neutral-24.svg

<svg width="24" height="24" viewBox="0 0 24 24" fill="none" xmlns="http://www.w3.org/2000/svg">
<path d="M12 1C18.0751 1 23 5.92487 23 12C23 18.0751 18.0751 23 12 23C5.92487 23 1 18.0751 1 12C1 5.92487 5.92487 1 12 1ZM12 2.5C6.75329 2.5 2.5 6.75329 2.5 12C2.5 17.2467 6.75329 21.5 12 21.5C17.2467 21.5 21.5 17.2467 21.5 12C21.5 6.75329 17.2467 2.5 12 2.5ZM14.75 15.25C15.1642 15.25 15.5 15.5858 15.5 16C15.5 16.4142 15.1642 16.75 14.75 16.75H9.25C8.83579 16.75 8.5 16.4142 8.5 16C8.5 15.5858 8.83579 15.25 9.25 15.25H14.75ZM7.75 9.5C8.44036 9.5 9 10.0596 9 10.75C9 11.4404 8.44036 12 7.75 12C7.05964 12 6.5 11.4404 6.5 10.75C6.5 10.0596 7.05964 9.5 7.75 9.5ZM16.25 9.5C16.9404 9.5 17.5 10.0596 17.5 10.75C17.5 11.4404 16.9404 12 16.25 12C15.5596 12 15 11.4404 15 10.75C15 10.0596 15.5596 9.5 16.25 9.5Z" fill="black"/>
</svg>

<svg xmlns="http://www.w3.org/2000/svg" width="24" height="24" viewBox="0 0 24 24"><path d="M12 1c6.075 0 11 4.925 11 11s-4.925 11-11 11S1 18.075 1 12 5.925 1 12 1Zm0 1.5A9.5 9.5 0 0 0 2.5 12a9.5 9.5 0 0 0 9.5 9.5 9.5 9.5 0 0 0 9.5-9.5A9.5 9.5 0 0 0 12 2.5Zm2.75 12.75a.75.75 0 0 1 0 1.5h-5.5a.75.75 0 0 1 0-1.5h5.5Zm-7-5.75a1.25 1.25 0 1 1 0 2.5 1.25 1.25 0 0 1 0-2.5Zm8.5 0a1.25 1.25 0 1 1 0 2.5 1.25 1.25 0 0 1 0-2.5Z"/></svg>
